storage/app/icons/phosphoricons/bold/invoice-bold.svg

<svg xmlns="http://www.w3.org/2000/svg" fill="currentColor" viewBox="0 0 256 256"><path d="M28 132a12 12 0 0 1 0-24h28a4 4 0 0 0 0-8H40a28 28 0 0 1-3.38-55.79A12 12 0 0 1 59.3 44H64a12 12 0 0 1 0 24H40a4 4 0 0 0 0 8h16a28 28 0 0 1 3.38 55.79 12 12 0 0 1-22.68.21Zm208-76v136a20 20 0 0 1-20 20H40a20 20 0 0 1-20-20v-28a12 12 0 0 1 24 0v24h112v-24H88a12 12 0 0 1 0-24h68v-24h-44a12 12 0 0 1 0-24h100V68H104a12 12 0 0 1 0-24h120a12 12 0 0 1 12 12m-56 84h32v-24h-32Zm32 48v-24h-32v24Z"/></svg>

<svg xmlns="http://www.w3.org/2000/svg" viewBox="0 0 256 256" fill="currentColor"><path d="M28,132a12,12,0,0,1,0-24H56a4,4,0,0,0,0-8H40a28,28,0,0,1-3.38-55.79A12,12,0,0,1,59.3,44H64a12,12,0,0,1,0,24H40a4,4,0,0,0,0,8H56a28,28,0,0,1,3.38,55.79A12,12,0,0,1,36.7,132ZM236,56V192a20,20,0,0,1-20,20H40a20,20,0,0,1-20-20V164a12,12,0,0,1,24,0v24H156V164H88a12,12,0,0,1,0-24h68V116H112a12,12,0,0,1,0-24H212V68H104a12,12,0,0,1,0-24H224A12,12,0,0,1,236,56Zm-56,84h32V116H180Zm32,48V164H180v24Z"/></svg>
